raw/symbols/meta.svg

<svg width="36" height="36" viewBox="0 0 36 36" fill="none" xmlns="http://www.w3.org/2000/svg">
<rect width="36" height="36" rx="18" fill="#5097DB"/>
<path d="M7.37732 20.8706C7.37732 21.9053 7.60444 22.6998 7.90129 23.1804C8.29051 23.8099 8.87103 24.0766 9.46286 24.0766C10.2262 24.0766 10.9245 23.8872 12.2703 22.026C13.3484 20.5341 14.6188 18.4401 15.4735 17.1273L16.9211 14.9032C17.9266 13.3586 19.0905 11.6416 20.425 10.4777C21.5144 9.52775 22.6896 9 23.8723 9C25.8579 9 27.7494 10.1507 29.1969 12.3088C30.7811 14.6724 31.5501 17.6494 31.5501 20.7217C31.5501 22.5481 31.1901 23.8901 30.5775 24.9503C29.9857 25.9756 28.8322 27 26.8918 27V24.0766C28.5532 24.0766 28.9679 22.5499 28.9679 20.8027C28.9679 18.3129 28.3874 15.5497 27.1085 13.5754C26.201 12.175 25.0249 11.3193 23.7309 11.3193C22.3314 11.3193 21.2053 12.3748 19.9396 14.2568C19.2667 15.2566 18.576 16.4752 17.8004 17.8502L16.9465 19.3627C15.2313 22.4039 14.7969 23.0965 13.9393 24.2397C12.4362 26.2414 11.1526 27 9.46286 27C7.45836 27 6.19082 26.132 5.4058 24.824C4.76496 23.7581 4.4502 22.3596 4.4502 20.766L7.37732 20.8706Z" fill="#030303"/>
<path d="M12.2109 11.9431C11.0546 11.9431 10.0726 12.7546 9.25082 13.9957C8.08883 15.7495 7.37732 18.3619 7.37732 20.8706C7.37732 21.9053 7.60444 22.6998 7.90129 23.1804L5.4058 24.824C4.76496 23.7581 4.4502 22.3596 4.4502 20.766C4.4502 17.8681 5.24559 14.8476 6.75815 12.5152C8.10014 10.4466 10.0368 9 12.258 9L12.2109 11.9431Z" fill="#030303"/>
<path d="M6.75586 12.5152C8.09785 10.4466 10.0345 9 12.2558 9C13.5421 9 14.821 9.38073 16.1564 10.4711C17.6171 11.6632 19.174 13.6263 21.1163 16.8616L21.8127 18.0226C23.494 20.8235 24.4505 22.2644 25.0103 22.9439C25.7303 23.8165 26.2345 24.0766 26.8895 24.0766C28.5509 24.0766 28.9656 22.5499 28.9656 20.8027L31.5478 20.7217C31.5478 22.5481 31.1878 23.8901 30.5752 24.9503C29.9834 25.9756 28.8299 27 26.8895 27C25.6832 27 24.6145 26.738 23.4327 25.6231C22.5242 24.7674 21.4621 23.2473 20.6451 21.8808L18.2146 17.8209C16.9951 15.7835 15.8765 14.2643 15.2291 13.5763C14.5326 12.8365 13.6373 11.9431 12.2086 11.9431C11.0523 11.9431 10.0703 12.7546 9.24853 13.9957L6.75586 12.5152Z" fill="url(#paint0_linear_11795_279206)"/>
<defs>
<linearGradient id="paint0_linear_11795_279206" x1="6.79453" y1="19.8" x2="26.2645" y2="26.8876" gradientUnits="userSpaceOnUse">
<stop stop-color="#030303"/>
<stop offset="0.489583" stop-color="#8B8A8A"/>
<stop offset="1" stop-color="#030303"/>
</linearGradient>
</defs>
</svg>

<svg xmlns="http://www.w3.org/2000/svg" width="36" height="36" fill="none"><rect width="36" height="36" fill="#5097DB" rx="18"/><path fill="#030303" d="M7.377 20.87c0 1.035.227 1.83.524 2.31.39.63.97.897 1.562.897.763 0 1.462-.19 2.807-2.051 1.078-1.492 2.349-3.586 3.204-4.899l1.447-2.224c1.006-1.544 2.17-3.261 3.504-4.425C21.515 9.528 22.69 9 23.872 9c1.986 0 3.877 1.15 5.325 3.309 1.584 2.363 2.353 5.34 2.353 8.413 0 1.826-.36 3.168-.973 4.228-.591 1.026-1.745 2.05-3.685 2.05v-2.923c1.661 0 2.076-1.527 2.076-3.274 0-2.49-.58-5.253-1.86-7.228-.907-1.4-2.083-2.256-3.377-2.256-1.4 0-2.526 1.056-3.791 2.938-.673 1-1.364 2.218-2.14 3.593l-.854 1.513c-1.715 3.04-2.15 3.733-3.007 4.877C12.436 26.24 11.153 27 9.463 27c-2.005 0-3.272-.868-4.057-2.176-.641-1.066-.956-2.464-.956-4.058l2.927.105Z"/><path fill="#030303" d="M12.21 11.943c-1.155 0-2.137.812-2.96 2.053-1.161 1.753-1.873 4.366-1.873 6.875 0 1.034.227 1.829.524 2.31l-2.495 1.643c-.641-1.066-.956-2.464-.956-4.058 0-2.898.796-5.918 2.308-8.25C8.1 10.445 10.037 9 12.258 9l-.047 2.943Z"/><path fill="url(#a)" d="M6.756 12.515C8.098 10.447 10.034 9 12.256 9c1.286 0 2.565.38 3.9 1.471 1.461 1.192 3.018 3.155 4.96 6.39l.697 1.162c1.681 2.8 2.638 4.241 3.197 4.92.72.873 1.224 1.134 1.88 1.134 1.66 0 2.076-1.527 2.076-3.274l2.582-.081c0 1.826-.36 3.168-.973 4.228C29.983 25.976 28.83 27 26.89 27c-1.207 0-2.276-.262-3.457-1.377-.909-.856-1.97-2.376-2.788-3.742l-2.43-4.06c-1.22-2.038-2.338-3.557-2.986-4.245-.696-.74-1.592-1.633-3.02-1.633-1.157 0-2.139.812-2.96 2.053l-2.493-1.48Z"/><defs><linearGradient id="a" x1="6.795" x2="26.265" y1="19.8" y2="26.888" gradientUnits="userSpaceOnUse"><stop stop-color="#030303"/><stop offset=".49" stop-color="#8B8A8A"/><stop offset="1" stop-color="#030303"/></linearGradient></defs></svg>
